X:1
T:Dolomite Chant
T:Dolomite Chant
T:Austrian melody
T:Arrangement © 1998, Richard W. Adams. Reproduce freelyfor Christian worship. Courtesy of the Cyber Hymnal™
C:Austrian melody
Z:Arrangement © 1998, Richard W. Adams. Reproduce freelyfor Christian worship.
Z:Courtesy of the Cyber Hymnal™
%%score ( 1 2 ) ( 3 4 )
L:1/8
M:4/4
K:D
V:1 treble 
V:2 treble 
V:3 bass 
V:4 bass 
V:1
 [DF]2 [A,F]2 [DF]2 [EG]2 | [DF]2 [CE]6 | [CG]2 [DG]2 [EG]2 [CA]2 | [CG]2 [DF]6 | %4
 [A,F]2 [DF]2 [DF]2 [DG]2 | [FA]2 [GB]6 | [EG]2 (F2 A2) [EG]2 | (E2 G2) [CE]2 [B,D]4 |] %8
V:2
 x8 | x8 | x8 | x8 | x8 | x8 | x2 D4 x2 | D4 x6 |] %8
V:3
 [D,A,]2 [D,F,]2 [D,A,]2 [C,A,]2 | [D,A,]2 [A,,A,]6 | [A,,A,]2 [A,,B,]2 [A,,C]2 [A,,E,]2 | %3
 [A,,A,]2 [D,A,]6 | [D,F,]2 [D,A,]2 [=C,A,]2 [B,,G,]2 | [A,,=C]2 [G,,B,]6 | %6
 [G,,B,]2 (A,2 F,2) [A,,A,]2 | (B,2 E,2) [A,,A,]2 [D,F,]4 |] %8
V:4
 x8 | x8 | x8 | x8 | x8 | x8 | x2 A,,4 x2 | A,,4 x6 |] %8

